packages/tokens/icons/open/size24Px.svg

<svg viewBox="0 0 24 24" fill="none" xmlns="http://www.w3.org/2000/svg" width="1em" height="1em"><path d="M10.5 3.5L5.13988 3.58614C4.22997 3.60077 3.5 4.34256 3.5 5.2526V18.8334C3.5 19.7538 4.24619 20.5 5.16667 20.5H18.8333C19.7538 20.5 20.5 19.7538 20.5 18.8334V13.6013" stroke="currentColor" stroke-linecap="round" stroke-linejoin="round"/><path d="M12 12L20.5 3.5M13.5 3.5H20.5M20.5 3.5V10.5" stroke="currentColor" stroke-linecap="round" stroke-linejoin="round"/></svg>

<svg xmlns="http://www.w3.org/2000/svg" fill="none" viewBox="0 0 24 24" width="1em" height="1em"><path stroke="currentColor" stroke-linecap="round" stroke-linejoin="round" d="m10.5 3.5-5.36.086c-.91.015-1.64.757-1.64 1.667v13.58c0 .92.746 1.667 1.667 1.667h13.666c.92 0 1.667-.746 1.667-1.667v-5.232M12 12l8.5-8.5m-7 0h7m0 0v7"/></svg>
